assets/images/bg-mob-tabs.svg

<svg width="428" height="297" viewBox="0 0 428 297" fill="none" xmlns="http://www.w3.org/2000/svg">
<g filter="url(#filter0_f_1207_9)">
<path d="M65.3649 140.155L85.9916 164.22C87.4849 165.962 85.3466 168.438 83.4059 167.213L48.4792 145.178C46.501 143.93 44.3555 146.51 45.9438 148.227L89.9654 195.816C91.5537 197.533 89.4082 200.114 87.4301 198.866L26.2988 160.298C24.289 159.03 22.1391 161.7 23.8069 163.393L78.2183 218.619C79.9495 220.376 77.5868 223.097 75.6039 221.63L14.5721 176.468C12.5862 174.998 10.2227 177.729 11.9621 179.483L76.544 244.626L19.5786 197.535C17.7297 196.006 15.2479 198.434 16.735 200.316L43.6731 234.409C45.0672 236.174 42.9385 238.541 41.0367 237.341L5.25225 214.764C3.2647 213.51 1.11779 216.117 2.72969 217.828L20.1396 236.298C21.7515 238.008 19.6046 240.616 17.6171 239.362L-0.729569 227.787" stroke="#FFB75E" stroke-opacity="0.64" stroke-linecap="round"/>
</g>
<g filter="url(#filter1_f_1207_9)">
<path d="M405.064 194.834L415.4 206.894C416.893 208.636 414.755 211.111 412.814 209.887L398.642 200.945C396.664 199.697 394.518 202.278 396.106 203.995L417.379 226.991C418.967 228.708 416.821 231.288 414.843 230.04L384.889 211.142C382.879 209.874 380.729 212.545 382.397 214.237L407.07 239.28C408.801 241.037 406.438 243.758 404.456 242.291L379.53 223.846C377.544 222.377 375.181 225.108 376.92 226.862L412.311 262.56L380.494 236.258C378.645 234.73 376.163 237.158 377.651 239.04L388.455 252.715C389.849 254.479 387.721 256.846 385.819 255.646L370.789 246.163C368.801 244.91 366.654 247.517 368.266 249.227L371.938 253.122C373.55 254.832 371.403 257.44 369.416 256.186L362.216 251.644" stroke="#FFB75E" stroke-opacity="0.64" stroke-linecap="round"/>
</g>
<path opacity="0.11" d="M488.985 171.656L254.5 171.656L192 125.329L425.281 125.264L488.985 171.656Z" fill="#FFB75E"/>
<defs>
<filter id="filter0_f_1207_9" x="-5.22949" y="135.654" width="100.253" height="113.357" filterUnits="userSpaceOnUse" color-interpolation-filters="sRGB">
<feFlood flood-opacity="0" result="BackgroundImageFix"/>
<feBlend mode="normal" in="SourceGraphic" in2="BackgroundImageFix" result="shape"/>
<feGaussianBlur stdDeviation="2" result="effect1_foregroundBlur_1207_9"/>
</filter>
<filter id="filter1_f_1207_9" x="357.717" y="190.334" width="64.7197" height="76.6108" filterUnits="userSpaceOnUse" color-interpolation-filters="sRGB">
<feFlood flood-opacity="0" result="BackgroundImageFix"/>
<feBlend mode="normal" in="SourceGraphic" in2="BackgroundImageFix" result="shape"/>
<feGaussianBlur stdDeviation="2" result="effect1_foregroundBlur_1207_9"/>
</filter>
</defs>
</svg>

<svg width="428" height="297" fill="none" xmlns="http://www.w3.org/2000/svg"><g filter="url(#a)"><path d="m65.365 140.155 20.627 24.065c1.493 1.742-.645 4.218-2.586 2.993l-34.927-22.035c-1.978-1.248-4.123 1.332-2.535 3.049l44.021 47.589c1.589 1.717-.557 4.298-2.535 3.05L26.3 160.298c-2.01-1.268-4.16 1.402-2.492 3.095l54.411 55.226c1.731 1.757-.631 4.478-2.614 3.011l-61.032-45.162c-1.986-1.47-4.35 1.261-2.61 3.015l64.582 65.143-56.965-47.091c-1.85-1.529-4.331.899-2.844 2.781l26.938 34.093c1.394 1.765-.735 4.132-2.636 2.932L5.252 214.764c-1.987-1.254-4.134 1.353-2.522 3.064l17.41 18.47c1.611 1.71-.535 4.318-2.523 3.064L-.73 227.787" stroke="#FFB75E" stroke-opacity=".64" stroke-linecap="round"/></g><g filter="url(#b)"><path d="m405.064 194.834 10.336 12.06c1.493 1.742-.645 4.217-2.586 2.993l-14.172-8.942c-1.978-1.248-4.124 1.333-2.536 3.05l21.273 22.996c1.588 1.717-.558 4.297-2.536 3.049l-29.954-18.898c-2.01-1.268-4.16 1.403-2.492 3.095l24.673 25.043c1.731 1.757-.632 4.478-2.614 3.011l-24.926-18.445c-1.986-1.469-4.349 1.262-2.61 3.016l35.391 35.698-31.817-26.302c-1.849-1.528-4.331.9-2.843 2.782l10.804 13.675c1.394 1.764-.734 4.131-2.636 2.931l-15.03-9.483c-1.988-1.253-4.135 1.354-2.523 3.064l3.672 3.895c1.612 1.71-.535 4.318-2.522 3.064l-7.2-4.542" stroke="#FFB75E" stroke-opacity=".64" stroke-linecap="round"/></g><path opacity=".11" d="M488.985 171.656H254.5L192 125.329l233.281-.065 63.704 46.392Z" fill="#FFB75E"/><defs><filter id="a" x="-5.229" y="135.654" width="100.253" height="113.357" filterUnits="userSpaceOnUse" color-interpolation-filters="sRGB"><feFlood flood-opacity="0" result="BackgroundImageFix"/><feBlend in="SourceGraphic" in2="BackgroundImageFix" result="shape"/><feGaussianBlur stdDeviation="2" result="effect1_foregroundBlur_1207_9"/></filter><filter id="b" x="357.717" y="190.334" width="64.72" height="76.611" filterUnits="userSpaceOnUse" color-interpolation-filters="sRGB"><feFlood flood-opacity="0" result="BackgroundImageFix"/><feBlend in="SourceGraphic" in2="BackgroundImageFix" result="shape"/><feGaussianBlur stdDeviation="2" result="effect1_foregroundBlur_1207_9"/></filter></defs></svg>
